deepin/status/network-mobile-4g-online-symbolic.svg

<?xml version="1.0" encoding="UTF-8" standalone="no"?>
<svg width="16px" height="16px" viewBox="0 0 16 16" version="1.1" xmlns="http://www.w3.org/2000/svg" xmlns:xlink="http://www.w3.org/1999/xlink">
    <!-- Generator: Sketch 39.1 (31720) - http://www.bohemiancoding.com/sketch -->
    <title>network-mobile-4g-on</title>
    <desc>Created with Sketch.</desc>
    <defs></defs>
    <g id="Page-1" stroke="none" stroke-width="1" fill="none" fill-rule="evenodd">
        <g id="network-mobile-4g-on">
            <g id="Group-23">
                <polygon id="Fill-361" points="0 16 16 16 16 0 0 0"></polygon>
                <path d="M9.6973,4.6826 C10.1473,4.2336 10.7463,3.9856 11.3833,3.9856 L11.6153,3.9856 C12.2523,3.9856 12.8513,4.2336 13.3013,4.6826 C13.7513,5.1336 13.9993,5.7326 13.9993,6.3696 C13.9993,6.6456 14.2223,6.8696 14.4993,6.8696 C14.7753,6.8696 14.9993,6.6456 14.9993,6.3696 C14.9993,5.4656 14.6473,4.6156 14.0083,3.9756 C13.3693,3.3366 12.5193,2.9856 11.6153,2.9856 L11.3833,2.9856 C10.4793,2.9856 9.6293,3.3366 8.9903,3.9756 C8.3513,4.6156 7.9993,5.4656 7.9993,6.3696 L7.9993,10.6016 C7.9993,11.5046 8.3513,12.3546 8.9903,12.9946 C9.6303,13.6336 10.4793,13.9856 11.3833,13.9856 L11.6153,13.9856 C12.5153,13.9856 13.3613,13.6356 13.9993,13.0016 L13.9993,13.4856 C13.9993,13.7616 14.2223,13.9856 14.4993,13.9856 C14.7753,13.9856 14.9993,13.7616 14.9993,13.4856 L14.9993,10.6016 L14.9993,8.4856 L14.9993,8.4846 C14.9993,8.2076 14.7753,7.9846 14.4993,7.9846 C14.4973,7.9846 14.4963,7.9856 14.4943,7.9856 L11.4993,7.9856 C11.2223,7.9856 10.9993,8.2086 10.9993,8.4856 C10.9993,8.7616 11.2223,8.9856 11.4993,8.9856 L13.9993,8.9856 L13.9993,10.6016 C13.9993,11.2376 13.7513,11.8356 13.3013,12.2866 C12.8503,12.7376 12.2523,12.9856 11.6153,12.9856 L11.3833,12.9856 C10.7463,12.9856 10.1483,12.7376 9.6973,12.2866 C9.2473,11.8356 8.9993,11.2376 8.9993,10.6016 L8.9993,6.3696 C8.9993,5.7326 9.2473,5.1336 9.6973,4.6826" id="Fill-363" fill="#FFFFFF"></path>
                <path d="M5,11.0088 L1.854,11.0088 L5,5.4098 L5,11.0088 Z M6.978,11.0088 L6,11.0088 L6,3.4998 C6,3.2728 5.847,3.0738 5.626,3.0168 C5.406,2.9538 5.175,3.0568 5.064,3.2548 L0.564,11.2638 C0.477,11.4188 0.479,11.6088 0.568,11.7618 C0.658,11.9148 0.822,12.0088 1,12.0088 L5,12.0088 L5,13.4998 C5,13.7768 5.224,13.9998 5.5,13.9998 C5.776,13.9998 6,13.7768 6,13.4998 L6,12.0088 L6.978,12.0088 C7.254,12.0088 7.478,11.7848 7.478,11.5088 C7.478,11.2328 7.254,11.0088 6.978,11.0088 L6.978,11.0088 Z" id="Fill-364" fill="#FFFFFF"></path>
            </g>
        </g>
    </g>
</svg>

<?xml version="1.0" encoding="iso-8859-1"?>
<!-- Generator: Adobe Illustrator 18.0.0, SVG Export Plug-In . SVG Version: 6.00 Build 0)  -->
<!DOCTYPE svg PUBLIC "-//W3C//DTD SVG 1.1//EN" "http://www.w3.org/Graphics/SVG/1.1/DTD/svg11.dtd">
<svg version="1.1" id="&#x56FE;&#x5C42;_1" xmlns="http://www.w3.org/2000/svg" xmlns:xlink="http://www.w3.org/1999/xlink" x="0px"
	 y="0px" viewBox="0 0 16 16" style="enable-background:new 0 0 16 16;" xml:space="preserve">
<path style="fill:#FFFFFF;" d="M9.697,4.68c0.45-0.449,1.049-0.697,1.686-0.697h0.232c0.637,0,1.236,0.248,1.686,0.697
	c0.45,0.451,0.698,1.05,0.698,1.687c0,0.276,0.224,0.5,0.5,0.5s0.5-0.224,0.5-0.5c0-0.903-0.352-1.754-0.991-2.394
	c-0.639-0.639-1.488-0.99-2.393-0.99h-0.232c-0.904,0-1.753,0.352-2.393,0.99c-0.639,0.64-0.991,1.49-0.991,2.394v4.232
	c0,0.903,0.352,1.753,0.991,2.393c0.64,0.64,1.489,0.991,2.393,0.991h0.232c0.9,0,1.746-0.35,2.384-0.984v0.484
	c0,0.276,0.224,0.5,0.5,0.5s0.5-0.224,0.5-0.5v-2.884V8.483V8.482c0-0.276-0.224-0.5-0.5-0.5c-0.002,0-0.003,0.001-0.005,0.001
	h-2.995c-0.276,0-0.5,0.224-0.5,0.5s0.224,0.5,0.5,0.5h2.5v1.616c0,0.636-0.248,1.234-0.698,1.686
	c-0.45,0.45-1.049,0.698-1.686,0.698h-0.232c-0.636,0-1.235-0.248-1.686-0.698c-0.45-0.451-0.698-1.05-0.698-1.686V6.367
	C8.999,5.73,9.247,5.131,9.697,4.68z"/>
<path style="fill:#FFFFFF;" d="M6.978,11.006H6V3.498C6,3.27,5.847,3.072,5.626,3.014c-0.221-0.063-0.451,0.04-0.563,0.238
	l-4.5,8.009c-0.087,0.155-0.085,0.345,0.004,0.498c0.09,0.153,0.254,0.247,0.432,0.247h4v1.491c0,0.276,0.224,0.5,0.5,0.5
	s0.5-0.224,0.5-0.5v-1.491h0.978c0.276,0,0.5-0.224,0.5-0.5S7.254,11.006,6.978,11.006z M5,11.006H1.854L5,5.408V11.006z"/>
</svg>
